X:1
T:Title
%%score ( 1 2 ) 3
L:1/8
M:3/4
K:Bb
V:1 treble nm="Choir Aahs, Unnamed-000"
V:2 treble 
V:3 bass nm="Choir Aahs, Unnamed-001"
V:1
 [DF]2 [Fd]2 [DB]2 | [DF]>[B,D] [CF]2 [CE]2 | [CE]2 [Ec]2 [EA]2 | [EF]>[EA] [Ec]2 [DB]2 | %4
w: By~William~Howard~Doane~(1832\-1915) * *||||
 [DF]2 [FB]3 [Fc] | [Fd]2 [Ge]2 [Fd]2 | [Fd]2 [=Ec]2 [EG]2 | [=Ec]2 F4 | [EF]2 [Dd]2 [DB]2 | %9
w: |||||
 [DF]>[B,D] [DF]2 [CE]2 | [CE]2 [Ec]2 [EA]2 | [EF]>[EA] [Ec]2 [DB]2 | [DF]2 [FB]3 [Fc] | %13
w: ||||
 [Fd]2 [Ge]2 [EG]2 | [Gc]2 [Fc]2 [FB]2 | A-[EA] [DB]4 | [FA]>[FB] [Fc]3 [F=B] | [Fc]2 [Fd]2 [Fc]2 | %18
w: |||||
 [Af]2 [G=e]2 [Bd]2 | [GB]>[=Ed] [Fd]2 [Fc]2 | [FA]>[FB] [Fc]3 [F=B] | [Fc]2 [Fd]2 [Fc]2 | %22
w: ||||
 [FA]2 [Ac][GB] [FA]2 | [=EG]2 F4 | [EF]2 [Dd]2 [DB]2 | [DF]>[B,D] [DF]2 [CE]2 | %26
w: ||||
 [CE]2 [Ec]2 [EA]2 | [EF]>[EA] [Ec]2 [DB]2 | [DF]2 [FB]3 [Fc] | [Fd]2 [Ge]2 [EG]2 | %30
w: ||||
 [Gc]2 [Fc]2 [FB]2 | A-[EA] [DB]4 |] %32
w: ||
V:2
 x6 | x6 | x6 | x6 | x6 | x6 | x6 | x6 | x6 | x6 | x6 | x6 | x6 | x6 | x6 | .F2 z2 z2 | x6 | x6 | %18
 x6 | x6 | x6 | x6 | x6 | x6 | x6 | x6 | x6 | x6 | x6 | x6 | x6 | .F2 z2 z2 |] %32
V:3
 [B,,B,]2 [B,,B,]2 [B,,B,]2 | [B,,B,]>[B,,B,] [F,A,]2 [F,A,]2 | [F,A,]2 [F,A,]2 [F,C]2 | %3
 [F,A,]>F, [B,,F,]2 [B,,F,]2 | [B,,B,]2 [D,B,]3 [C,A,] | [B,,B,]2 [B,,B,]2 [B,,B,]2 | %6
 [B,,B,]2 [C,G,]2 [C,C]2 | [C,B,]2 [F,A,]4 | [F,A,]2 [B,,B,]2 [B,,B,]2 | %9
 [B,,B,]>[B,,B,] [F,A,]2 [F,A,]2 | [F,A,]2 [F,A,]2 [F,C]2 | [F,A,]>F, [B,,F,]2 [B,,F,]2 | %12
 [B,,B,]2 [D,B,]3 [C,A,] | [B,,B,]2 [E,B,]2 [E,B,]2 | [C,E]2 [F,E]2 [F,D]2 | [F,C]2 [B,,B,]4 | %16
 F,>[F,G,] [F,A,]3 [F,_A,] | [F,A,]2 [F,B,]2 [F,A,]2 | [F,C]2 [B,,C]2 [C,C]2 | %19
 [C,C]>B, [F,B,]2 [F,A,]2 | F,>[E,G,] [F,A,]3 [F,_A,] | [F,A,]2 [F,B,]2 [F,A,]2 | %22
 [F,C]2 [C,C]2 [C,C]2 | [C,B,]2 [F,A,]4 | [F,A,]2 [B,,B,]2 [B,,B,]2 | %25
 [B,,B,]>[B,,B,] [F,A,]2 [F,A,]2 | [F,A,]2 [F,A,]2 [F,C]2 | [F,A,]>F, [B,,F,]2 [B,,F,]2 | %28
 [B,,B,]2 [D,B,]3 [C,A,] | [B,,B,]2 [E,B,]2 [E,B,]2 | [C,E]2 [F,E]2 [F,D]2 | [F,C]2 [B,,B,]4 |] %32

